X: 4
I: linebreak $
T: Cupido
C: Tenor: Canzon di Pifari, Cornazano, c. 1465
C: arr. Jay Ter Louw
N: 
N: 
K: G major
M: 6/4
L: 1/8
edc | B3cBA B2ABc2 | dcBcd2 ed2c2B | A2d3c BcBA^G2 | A6- A3Bcd | e3ABc dg2fed | c2dedc B2d3c | 
B3AGF E4cB | AGFGAB Bcd3c | cB2A2G G2cBA/G/A | B4E2 B3cBA | GFEFGA BAGAB2 | dc2Bcd e2dcB2 | 
c3edc BA^GABG | A6 z3edc | B4AB c2edcB | A2B2A2 G2AGFG | E3FGF GA2B2A | c2e3d c2dBc2 | 
d2ABcd e3dcB | c2B2A2 dcBAG2 | ed2cBA G2BABG | Ac2B2A BAB2^G2 | A12 |] 

